icons/filled/chess.svg

<svg xmlns="http://www.w3.org/2000/svg" width="24" height="24" viewBox="0 0 24 24" fill="currentColor"><path d="M12 2a4 4 0 0 1 4 4a5.03 5.03 0 0 1 -.438 2.001l.438 -.001a1 1 0 0 1 .117 1.993l-.117 .007h-1.263l1.24 5.79a1 1 0 0 1 -.747 1.184l-.113 .02l-.117 .006h-6a1 1 0 0 1 -.996 -1.093l.018 -.117l1.24 -5.79h-1.262a1 1 0 0 1 -.117 -1.993l.117 -.007h.438a5.154 5.154 0 0 1 -.412 -1.525l-.02 -.259l-.006 -.216a4 4 0 0 1 4 -4z"/><path d="M18 18h-12a1 1 0 0 0 -1 1a2 2 0 0 0 2 2h10a2 2 0 0 0 1.987 -1.768l.011 -.174a1 1 0 0 0 -.998 -1.058z"/></svg>

<svg xmlns="http://www.w3.org/2000/svg" width="24" height="24" fill="currentColor"><path d="M12 2a4 4 0 0 1 4 4 5 5 0 0 1-.438 2.001L16 8a1 1 0 0 1 .117 1.993L16 10h-1.263l1.24 5.79a1 1 0 0 1-.747 1.184l-.113.02L15 17H9a1 1 0 0 1-.996-1.093l.018-.117L9.262 10H8a1 1 0 0 1-.117-1.993L8 8h.438a5.2 5.2 0 0 1-.412-1.525l-.02-.259L8 6a4 4 0 0 1 4-4M18 18H6a1 1 0 0 0-1 1 2 2 0 0 0 2 2h10a2 2 0 0 0 1.987-1.768l.011-.174A1 1 0 0 0 18 18"/></svg>
